apps/nuxt3-ssr/assets/minified-icons/View normal.svg

<svg fill="none" xmlns="http://www.w3.org/2000/svg" viewBox="0 0 24 24"><path d="M4.5 11.25c-.4 0-.75-.15-1.05-.45-.3-.3-.45-.65-.45-1.05V4.5c0-.4.15-.75.45-1.05.3-.3.65-.45 1.05-.45h15c.4 0 .75.15 1.05.45.3.3.45.65.45 1.05v5.25c0 .4-.15.75-.45 1.05-.3.3-.65.45-1.05.45h-15Zm0-1.5h15V4.5h-15v5.25ZM4.5 21c-.4 0-.75-.15-1.05-.45-.3-.3-.45-.65-.45-1.05v-5.25c0-.4.15-.75.45-1.05.3-.3.65-.45 1.05-.45h15c.4 0 .75.15 1.05.45.3.3.45.65.45 1.05v5.25c0 .4-.15.75-.45 1.05-.3.3-.65.45-1.05.45h-15Zm0-1.5h15v-5.25h-15v5.25Zm0-15v5.25V4.5Zm0 9.75v5.25-5.25Z" fill="currentColor"/></svg>

<svg viewBox="0 0 24 24" fill="none" xmlns="http://www.w3.org/2000/svg"><path d="M4.5 11.25C4.1 11.25 3.75 11.1 3.45 10.8C3.15 10.5 3 10.15 3 9.75V4.5C3 4.1 3.15 3.75 3.45 3.45C3.75 3.15 4.1 3 4.5 3H19.5C19.9 3 20.25 3.15 20.55 3.45C20.85 3.75 21 4.1 21 4.5V9.75C21 10.15 20.85 10.5 20.55 10.8C20.25 11.1 19.9 11.25 19.5 11.25H4.5ZM4.5 9.75H19.5V4.5H4.5V9.75ZM4.5 21C4.1 21 3.75 20.85 3.45 20.55C3.15 20.25 3 19.9 3 19.5V14.25C3 13.85 3.15 13.5 3.45 13.2C3.75 12.9 4.1 12.75 4.5 12.75H19.5C19.9 12.75 20.25 12.9 20.55 13.2C20.85 13.5 21 13.85 21 14.25V19.5C21 19.9 20.85 20.25 20.55 20.55C20.25 20.85 19.9 21 19.5 21H4.5ZM4.5 19.5H19.5V14.25H4.5V19.5ZM4.5 4.5V9.75V4.5ZM4.5 14.25V19.5V14.25Z" fill="currentColor"/></svg>
